X: 8
T: Coen's Memories
R: reel
M: 4/4
L: 1/8
K: Edor
|:F|EDB,A, B,EFA|B2eB dBAF|~D3F E2DB,|A,B,DF EDB,D|
~E3E DEFA |B2eB dBAF|DEFA ABAF|DEFD ~E3:|
|:A|Be~e2 fedB |~e2fe dBAF|~A3B d2fd|edef d2BA|
Be~e2 fedB |~e2fe dBAF|DEFA ABAF|DEFD ~E3:|


Tune 558	Setting 13526

